picto/no-entry-framed.svg

<svg class="color-immutable" width="30" height="30" viewBox="0 0 30 30" fill="none" xmlns="http://www.w3.org/2000/svg"><path d="M29.9999 0H0V29.9999H29.9999V0Z" fill="#2D327D"/><path d="M25.4999 2.99999C26.3249 2.99999 26.9999 3.67499 26.9999 4.49999V25.4999C26.9999 26.3249 26.3249 26.9999 25.4999 26.9999H4.49999C3.67499 26.9999 2.99999 26.3249 2.99999 25.4999V4.49999C2.99999 3.67499 3.67499 2.99999 4.49999 2.99999H25.4999ZM25.4999 2.62499H4.49999C3.46612 2.62499 2.62499 3.46612 2.62499 4.49999V25.4999C2.62499 26.5338 3.46612 27.3749 4.49999 27.3749H25.4999C26.5338 27.3749 27.3749 26.5338 27.3749 25.4999V4.49999C27.3749 3.46612 26.5338 2.62499 25.4999 2.62499Z" fill="white"/><path d="M12.612 21.8109C12.612 23.1249 13.6771 24.1903 14.9909 24.1903C16.3052 24.1903 17.3705 23.1249 17.3705 21.8109V19.4315H12.612V21.8109Z" fill="white"/><path d="M24.1922 23.1311L17.5311 16.47L18.2501 13.4911C18.3234 13.1877 18.3267 12.8715 18.2604 12.5668L17.0423 6.95526C16.8976 6.28948 16.3084 5.81421 15.6272 5.81421H14.3554C13.6738 5.81421 13.0847 6.28941 12.9402 6.95526L12.0625 11.0014L6.85043 5.78938L5.78978 6.85003L11.7046 12.7649C11.6719 13.1274 11.7131 13.4936 11.9317 13.905C12.256 14.516 12.955 15.8317 12.955 15.8317L15.9824 17.0427L23.1315 24.1919L24.1922 23.1311Z" fill="white"/><path d="M6.85043 5.78938L5.78978 6.85003L23.1315 24.1919L24.1922 23.1311L6.85043 5.78938Z" fill="#EB0000"/></svg>

<svg class="color-immutable" width="30" height="30" viewBox="0 0 30 30" fill="none" xmlns="http://www.w3.org/2000/svg"><path d="M30 0H0v30h30V0Z" fill="#2D327D"/><path d="M25.5 3c.825 0 1.5.675 1.5 1.5v21c0 .825-.675 1.5-1.5 1.5h-21c-.825 0-1.5-.675-1.5-1.5v-21C3 3.675 3.675 3 4.5 3h21Zm0-.375h-21A1.877 1.877 0 0 0 2.625 4.5v21c0 1.034.841 1.875 1.875 1.875h21a1.877 1.877 0 0 0 1.875-1.875v-21A1.877 1.877 0 0 0 25.5 2.625Z" fill="#fff"/><path d="M12.612 21.81a2.38 2.38 0 1 0 4.758 0v-2.378h-4.758v2.379Z" fill="#fff"/><path d="m24.192 23.131-6.66-6.661.718-2.979c.073-.303.077-.62.01-.924l-1.218-5.612a1.449 1.449 0 0 0-1.415-1.14h-1.272c-.681 0-1.27.474-1.415 1.14l-.877 4.046L6.85 5.79 5.79 6.85l5.915 5.915c-.033.362.008.729.227 1.14l1.023 1.927 3.027 1.21 7.15 7.15 1.06-1.06Z" fill="#fff"/><path d="M6.85 5.79 5.79 6.85 23.13 24.192l1.061-1.06L6.85 5.788Z" fill="#EB0000"/></svg>
